X: 250
T: A Lovely Morning
R: jig
M: 6/8
K: Edorian
EB|f3- fed|B3- BAG|FGA F2D|G2F- FED|E3- EFG|F2D- DB,D|B3 BAG|F2D- DEB|
f3- fed|B3- BAG|FGA F2D|G2F- FED|E2 F2 G2|B2A- AGF|GAB c2A|B3- BBd||
e2e-e2g|faf dBd|b3 bag|f2d- dBA|B2 d2 B2|f3- fed|e2 g2 e2|b3- bag|
eBe efg|f2d2Bd|b3 bag|f2d- dBA|B2 e2- e=c|c2 a2 gf|gab gdB|A3-A||

